public/img/clients/rogers.svg

<svg xmlns="http://www.w3.org/2000/svg" focusable="false" role="img" viewBox="0 0 200 100" fill="currentColor">
  <path fill-rule="evenodd" d="M177.148 42.085h3.206v.474h-1.338v3.474h-.53V42.56h-1.338v-.475zm7.464 3.95v-3.95h-.758l-1.12 3.34h-.007l-1.133-3.34h-.76v3.95h.51v-2.332c0-.117-.008-.616-.008-.98h.007l1.113 3.31h.537l1.102-3.318h.014c0 .372-.015.87-.015.988v2.33h.517l.001.002zm-99.453 4.27c0 1.998.448 3.654 1.387 4.752.794.937 1.9 1.425 3.173 1.425 1.276 0 2.385-.488 3.178-1.425.94-1.098 1.392-2.754 1.392-4.752 0-2.004-.453-3.66-1.392-4.758-.793-.937-1.902-1.424-3.178-1.424-1.274 0-2.38.487-3.173 1.424-.94 1.098-1.388 2.754-1.388 4.758h.001zm11.94-7.147c1.795 1.755 2.69 4.137 2.69 7.158 0 2.992-.892 5.37-2.677 7.132-1.785 1.762-4.25 2.64-7.405 2.64-3.143 0-5.608-.878-7.393-2.64-1.785-1.763-2.678-4.14-2.678-7.132 0-3.02.893-5.403 2.678-7.158 1.785-1.752 4.25-2.63 7.393-2.63 3.133 0 5.6.878 7.393 2.63h-.001zm40.744 16.274c1.47 0 1.988-.21 2.692-2.865l.1-.388h-9.59v-4.704h5.464c1.403 0 1.99-.215 2.698-2.866l.098-.377h-8.26v-3.945h5.896c1.75 0 1.935-.216 2.574-2.89l.085-.37h-14.138V59.43h12.382l-.001.002zm29.858-2.78c-1.267-.01-2.893-.21-4.646-1.167l-1.318 2.984.283.153c.775.408 2.966 1.457 6.236 1.457 4.25 0 8.12-1.77 8.12-5.723 0-2.914-2.085-4.277-4.653-5.692-2.564-1.413-4.273-2.15-4.243-3.46.024-.907 1.077-1.322 2.662-1.292 2.024.034 3.233.477 4.228 1.006l1.42-2.843-.268-.144c-.714-.376-2.756-1.343-6.128-1.343-5.14 0-7.308 2.703-7.308 5.232 0 1.49.272 3.504 4.458 5.748 3.422 1.853 3.903 2.434 3.914 3.35.014 1.172-1.128 1.746-2.756 1.732l-.001.002zm-6.32 2.78s-2.238-2.563-3.9-4.915c-1.008-1.414-1.803-2.56-2.43-3.528 2.054-.706 3.462-2.258 3.462-4.89 0-1.952-.78-3.2-2.206-4.047-1.582-.943-3.98-1.026-6.825-1.026h-6.18v18.405h5.443v-7.054h.555c.443 0 .726.107 1.358 1.14 1.36 2.177 2.03 3.198 2.923 4.645.48.768 1.248 1.27 2.704 1.27h5.098-.002zm-8.38-12.767c0 1.367-.625 1.982-1.355 2.358-.52.27-1.32.403-2.164.403h-.737V44.03h1.152c2.104 0 3.103.96 3.103 2.635h.001zM79.486 59.432s-2.24-2.563-3.9-4.915c-1.003-1.414-1.8-2.56-2.428-3.528 2.05-.706 3.457-2.258 3.457-4.89 0-1.952-.776-3.2-2.205-4.047-1.585-.943-3.982-1.026-6.825-1.026h-6.183v18.405h5.45v-7.054h.553c.44 0 .72.107 1.36 1.14 1.356 2.177 2.025 3.198 2.92 4.645.477.768 1.246 1.27 2.703 1.27H79.486zm-8.38-12.767c0 1.367-.634 1.982-1.355 2.358-.52.27-1.32.403-2.165.403h-.734V44.03h1.145c2.11 0 3.11.96 3.11 2.635h-.001zm50.236 2.9l.014-.006h-9.852s.41 1.43.473 1.67c.404 1.43.705 1.557 1.536 1.567l.004.01h2.604v3.778c-.72.153-1.54.222-2.45.183-3.31-.13-6.06-2.45-6.06-6.534 0-3.758 2.556-6.186 6.502-6.186 2.083 0 3.853.428 5.37 1.126l1.895-3.01-.292-.172c-1.196-.706-3.164-1.402-6.506-1.492-3.5-.097-6.682 1.06-8.352 2.165-1.558 1.055-4.17 3.47-4.17 7.8 0 2.527.776 4.62 2.296 6.224 2.066 2.18 5.584 3.39 9.656 3.39 3.403 0 5.845-.64 7.386-1.53v-8.985h-.055l.001.002zm-98.325-.25c.447-.795.732-1.31 1.426-2.247 4.118-5.492 13.452-14.183 21.414-10.364C42.756 33.894 38.583 32 34.064 32c-4.743 0-8.092 1.263-11.097 4.225-.645.64-2.125 3.688-2.125 6.106 0 2.024.588 4.282 2.176 6.984h-.001zm10.297 11.794c-.793-.452-1.308-.735-2.244-1.432-5.49-4.117-14.186-13.45-10.367-21.416C17.895 41.37 16 45.542 16 50.062c0 4.74 1.26 8.09 4.225 11.096.638.644 3.686 2.125 6.103 2.125 2.025 0 4.282-.59 6.987-2.174h-.001zm11.792-10.296c-.45.788-.734 1.303-1.427 2.244-4.12 5.49-13.452 14.182-21.416 10.364 3.106 2.812 7.278 4.706 11.8 4.706 4.74 0 8.086-1.268 11.09-4.228.65-.637 2.132-3.688 2.132-6.102 0-2.027-.595-4.28-2.18-6.984h.001zM34.81 39.016c.794.447 1.307.734 2.246 1.43 5.492 4.118 14.185 13.45 10.364 21.415 2.81-3.108 4.707-7.275 4.707-11.798 0-4.74-1.267-8.09-4.225-11.094-.64-.646-3.688-2.13-6.107-2.13-2.027 0-4.28.593-6.985 2.178v-.001z" clip-rule="evenodd"/>
</svg>

<svg width="200" height="100" viewBox="0 0 200 100" fill="none" xmlns="http://www.w3.org/2000/svg">
<path fill-rule="evenodd" clip-rule="evenodd" d="M177.148 42.085H180.354V42.559H179.016V46.033H178.486V42.56H177.148V42.085ZM184.612 46.035V42.085H183.854L182.734 45.425H182.727L181.594 42.085H180.834V46.035H181.344V43.703C181.344 43.586 181.336 43.087 181.336 42.723H181.343L182.456 46.033H182.993L184.095 42.715H184.109C184.109 43.087 184.094 43.585 184.094 43.703V46.033H184.611L184.612 46.035ZM85.159 50.305C85.159 52.303 85.607 53.959 86.546 55.057C87.34 55.994 88.446 56.482 89.719 56.482C90.995 56.482 92.104 55.994 92.897 55.057C93.837 53.959 94.289 52.303 94.289 50.305C94.289 48.301 93.836 46.645 92.897 45.547C92.104 44.61 90.995 44.123 89.719 44.123C88.445 44.123 87.339 44.61 86.546 45.547C85.606 46.645 85.158 48.301 85.158 50.305H85.159ZM97.099 43.158C98.894 44.913 99.789 47.295 99.789 50.316C99.789 53.308 98.897 55.686 97.112 57.448C95.327 59.21 92.862 60.088 89.707 60.088C86.564 60.088 84.099 59.21 82.314 57.448C80.529 55.685 79.636 53.308 79.636 50.316C79.636 47.296 80.529 44.913 82.314 43.158C84.099 41.406 86.564 40.528 89.707 40.528C92.84 40.528 95.307 41.406 97.1 43.158H97.099ZM137.843 59.432C139.313 59.432 139.831 59.222 140.535 56.567L140.635 56.179H131.045V51.475H136.509C137.912 51.475 138.499 51.26 139.207 48.609L139.305 48.232H131.045V44.287H136.941C138.691 44.287 138.876 44.071 139.515 41.397L139.6 41.027H125.462V59.43H137.844L137.843 59.432ZM167.701 56.652C166.434 56.642 164.808 56.442 163.055 55.485L161.737 58.469L162.02 58.622C162.795 59.03 164.986 60.079 168.256 60.079C172.506 60.079 176.376 58.309 176.376 54.356C176.376 51.442 174.291 50.079 171.723 48.664C169.159 47.251 167.45 46.514 167.48 45.204C167.504 44.297 168.557 43.882 170.142 43.912C172.166 43.946 173.375 44.389 174.37 44.918L175.79 42.075L175.522 41.931C174.808 41.555 172.766 40.588 169.394 40.588C164.254 40.588 162.086 43.291 162.086 45.82C162.086 47.31 162.358 49.324 166.544 51.568C169.966 53.421 170.447 54.002 170.458 54.918C170.472 56.09 169.33 56.664 167.702 56.65L167.701 56.652ZM161.381 59.432C161.381 59.432 159.143 56.869 157.481 54.517C156.473 53.103 155.678 51.957 155.051 50.989C157.105 50.283 158.513 48.731 158.513 46.099C158.513 44.147 157.733 42.899 156.307 42.052C154.725 41.109 152.327 41.026 149.482 41.026H143.302V59.431H148.745V52.377H149.3C149.743 52.377 150.026 52.484 150.658 53.517C152.018 55.694 152.688 56.715 153.581 58.162C154.061 58.93 154.829 59.432 156.285 59.432H161.383H161.381ZM153.001 46.665C153.001 48.032 152.376 48.647 151.646 49.023C151.126 49.293 150.326 49.426 149.482 49.426H148.745V44.03H149.897C152.001 44.03 153 44.99 153 46.665H153.001ZM79.486 59.432C79.486 59.432 77.246 56.869 75.586 54.517C74.583 53.103 73.786 51.957 73.158 50.989C75.208 50.283 76.615 48.731 76.615 46.099C76.615 44.147 75.839 42.899 74.41 42.052C72.825 41.109 70.428 41.026 67.585 41.026H61.402V59.431H66.852V52.377H67.405C67.845 52.377 68.125 52.484 68.765 53.517C70.121 55.694 70.79 56.715 71.685 58.162C72.162 58.93 72.931 59.432 74.388 59.432H79.485H79.486ZM71.106 46.665C71.106 48.032 70.472 48.647 69.751 49.023C69.231 49.293 68.431 49.426 67.586 49.426H66.852V44.03H67.997C70.107 44.03 71.107 44.99 71.107 46.665H71.106ZM121.342 49.565L121.356 49.559H111.504C111.504 49.559 111.914 50.989 111.977 51.229C112.381 52.659 112.682 52.786 113.513 52.796L113.517 52.806H116.121V56.584C115.401 56.737 114.581 56.806 113.671 56.767C110.361 56.637 107.611 54.317 107.611 50.233C107.611 46.475 110.167 44.047 114.113 44.047C116.196 44.047 117.966 44.475 119.483 45.173L121.378 42.163L121.086 41.991C119.89 41.285 117.922 40.589 114.58 40.499C111.08 40.402 107.898 41.559 106.228 42.664C104.67 43.719 102.058 46.134 102.058 50.464C102.058 52.991 102.834 55.084 104.354 56.688C106.42 58.868 109.938 60.078 114.01 60.078C117.413 60.078 119.855 59.438 121.396 58.548V49.563H121.341L121.342 49.565ZM23.017 49.315C23.464 48.52 23.749 48.005 24.443 47.068C28.561 41.576 37.895 32.885 45.857 36.704C42.756 33.894 38.583 32 34.064 32C29.321 32 25.972 33.263 22.967 36.225C22.322 36.865 20.842 39.913 20.842 42.331C20.842 44.355 21.43 46.613 23.018 49.315H23.017ZM33.314 61.109C32.521 60.657 32.006 60.374 31.07 59.677C25.58 55.56 16.884 46.227 20.703 38.261C17.895 41.37 16 45.542 16 50.062C16 54.802 17.26 58.152 20.225 61.158C20.863 61.802 23.911 63.283 26.328 63.283C28.353 63.283 30.61 62.693 33.315 61.109H33.314ZM45.106 50.813C44.656 51.601 44.372 52.116 43.679 53.057C39.559 58.547 30.227 67.239 22.263 63.421C25.369 66.233 29.541 68.127 34.063 68.127C38.803 68.127 42.149 66.859 45.153 63.899C45.803 63.262 47.285 60.211 47.285 57.797C47.285 55.77 46.69 53.517 45.105 50.813H45.106ZM34.81 39.016C35.604 39.463 36.117 39.75 37.056 40.446C42.548 44.564 51.241 53.896 47.42 61.861C50.23 58.753 52.127 54.586 52.127 50.063C52.127 45.323 50.86 41.973 47.902 38.969C47.262 38.323 44.214 36.839 41.795 36.839C39.768 36.839 37.515 37.432 34.81 39.017V39.016Z" fill="black"/>
</svg>
